source/images/icon-calendar.svg

<svg width="16" height="15" viewBox="0 0 16 15" fill="none" xmlns="http://www.w3.org/2000/svg">
<path d="M5.75 10C6.05 10 6.25 9.8 6.25 9.5C6.25 9.2 6.05 9 5.75 9C5.45 9 5.25 9.2 5.25 9.5C5.25 9.8 5.45 10 5.75 10Z" fill="black"/>
<path d="M15 2H13V0H12V2H4V0H3V2H1C0.4 2 0 2.4 0 3V14C0 14.5 0.4 15 1 15H15C15.5 15 16 14.5 16 14V3C16 2.4 15.5 2 15 2ZM15 14H1V7H15V14ZM1 6V3H3V5H4V3H12V5H13V3H15V6H1Z" fill="black"/>
<path d="M8 10C8.3 10 8.5 9.8 8.5 9.5C8.5 9.2 8.3 9 8 9C7.7 9 7.5 9.2 7.5 9.5C7.5 9.8 7.7 10 8 10Z" fill="black"/>
<path d="M10.25 10C10.55 10 10.75 9.8 10.75 9.5C10.75 9.2 10.55 9 10.25 9C9.95 9 9.75 9.2 9.75 9.5C9.75 9.8 9.95 10 10.25 10Z" fill="black"/>
<path d="M5.75 11C5.45 11 5.25 11.2 5.25 11.5C5.25 11.8 5.45 12 5.75 12C6.05 12 6.25 11.8 6.25 11.5C6.25 11.2 6.05 11 5.75 11Z" fill="black"/>
<path d="M3.5 10C3.8 10 4 9.8 4 9.5C4 9.2 3.8 9 3.5 9C3.2 9 3 9.2 3 9.5C3 9.8 3.2 10 3.5 10Z" fill="black"/>
<path d="M3.5 11C3.2 11 3 11.2 3 11.5C3 11.8 3.2 12 3.5 12C3.8 12 4 11.8 4 11.5C4 11.2 3.8 11 3.5 11Z" fill="black"/>
<path d="M8 11C7.7 11 7.5 11.2 7.5 11.5C7.5 11.8 7.7 12 8 12C8.3 12 8.5 11.8 8.5 11.5C8.5 11.2 8.3 11 8 11Z" fill="black"/>
<path d="M10.25 11C9.95 11 9.75 11.2 9.75 11.5C9.75 11.8 9.95 12 10.25 12C10.55 12 10.75 11.8 10.75 11.5C10.75 11.2 10.55 11 10.25 11Z" fill="black"/>
<path d="M12.5 10C12.8 10 13 9.8 13 9.5C13 9.2 12.8 9 12.5 9C12.2 9 12 9.2 12 9.5C12 9.8 12.2 10 12.5 10Z" fill="black"/>
<path d="M12.5 11C12.2 11 12 11.2 12 11.5C12 11.8 12.2 12 12.5 12C12.8 12 13 11.8 13 11.5C13 11.2 12.8 11 12.5 11Z" fill="black"/>
</svg>

<svg width="16" height="15" viewBox="0 0 16 15" fill="none" xmlns="http://www.w3.org/2000/svg"><path d="M5.75 10c.3 0 .5-.2.5-.5s-.2-.5-.5-.5-.5.2-.5.5.2.5.5.5z" fill="#000"/><path d="M15 2h-2V0h-1v2H4V0H3v2H1c-.6 0-1 .4-1 1v11c0 .5.4 1 1 1h14c.5 0 1-.5 1-1V3c0-.6-.5-1-1-1zm0 12H1V7h14v7zM1 6V3h2v2h1V3h8v2h1V3h2v3H1z" fill="#000"/><path d="M8 10c.3 0 .5-.2.5-.5S8.3 9 8 9s-.5.2-.5.5.2.5.5.5zm2.25 0c.3 0 .5-.2.5-.5s-.2-.5-.5-.5-.5.2-.5.5.2.5.5.5zm-4.5 1c-.3 0-.5.2-.5.5s.2.5.5.5.5-.2.5-.5-.2-.5-.5-.5zM3.5 10c.3 0 .5-.2.5-.5S3.8 9 3.5 9s-.5.2-.5.5.2.5.5.5zm0 1c-.3 0-.5.2-.5.5s.2.5.5.5.5-.2.5-.5-.2-.5-.5-.5zM8 11c-.3 0-.5.2-.5.5s.2.5.5.5.5-.2.5-.5-.2-.5-.5-.5zm2.25 0c-.3 0-.5.2-.5.5s.2.5.5.5.5-.2.5-.5-.2-.5-.5-.5zm2.25-1c.3 0 .5-.2.5-.5s-.2-.5-.5-.5-.5.2-.5.5.2.5.5.5zm0 1c-.3 0-.5.2-.5.5s.2.5.5.5.5-.2.5-.5-.2-.5-.5-.5z" fill="#000"/></svg>
